X: 9343
T: Dancing Bear, The
R: reel
M: 4/4
K: Eminor
|:EFGF EFGF|EFGA G2 F2|EFGF EFGF|EFGA G2 E2|
EFGF EFGF|EFGA B2 e2|B2 Bc BAGF|G2 E2 E4:|
|:e2 ef gfef|g2 e2 e4|d2 ef gfef|g2 e2 e4|
e2ef gf e2|^c2 ef gf e2|B2Bc BAGF|G2 E2 E4:|

